X:162
T:La franchoise nouvelle
R:Basse-danse
C:Marie de Bourgogne
M: 4/4
L: 1/8
Q:1/4=92
K:F % 1 flats
V:1
f2f2 f2e2| c2f>e d>c d2| c2c2 c2z2|
f2f2 f2e>d | c2d>e f2 F>A | G2F2 F2 f>e |
d2 cB- B/2A/2G A2| F2 F2 B2 A>F|
G2 A2 A2 f>e | d2 cB- B/2A/2G A2 | F2 F2 B2 AG-| G/2F/2G F2 F2 F2|
F2 F2 G2 A2| A2 B2 A2 G2| G2 F2 f2 F2| F2 F2 A/2G/2F/2G/2 A2|
A2 B2 Ac2B| G2 F2 F2 F2 |]
V:2
A2 A2 A2 G3/2z/2| 
E2 A>G F>E F2| 
E2 F2 A2z2 | 
A2 A2 A2 G3/2F/2|
E2 F3/2G/2 F4| 
E2 F2 F2 A3/2z/2| 
B2 cC DE F3/2z/2| 
C2 C2 D2 C3/2D/2|
E2 F2 F2 A3/2z/2| 
B2 cC DE F3/2z/2| 
C2 C2 D2 C3/2z/2| 
E2 F2 C2 C3/2z/2|
C2 C2 D2 E3/2z/2| 
E2 F2 E2 D3/2z/2| 
D4<C4| 
C2 C2 D2 E3/2z/2|
E2 F2 E3-E/2z/2| 
D2 C2 C2 C2 |]
V:3
% Staff-2
% bj jb
% By Unregistered User
% Copyright 0za9 1999 by NoteWorthy ArtWare, Inc.
% All Rights Reserved
% Generated by NoteWorthy Composer
F,2 F,2 F,2 C2-| 
C2 A,2 B,3-B,/2z/2| 
C2 F,2 CB, A,G,| 
F,2 F,2 F,2 C2-|
C2 B,2 A,3-A,/2z/2| 
C2 F,2 F,2 F,3/2z/2| 
F,4- F,2 F,2-| 
F,3-F,/2z/2 F,4-|
F,2 F,4- F,3/2z/2| 
F,4- F,2 F,2-| 
F,3-F,/2z/2 F,4-| 
F,2 F,4- F,3/2z/2|
F,2 A,2 B,2 C3/2z/2| 
C2 D2 C2 B,3/2z/2| 
B,4<A,4| 
F,2 A,2 B,2 C3/2z/2|
C2 D2 C3-C/2z/2| 
B,2 A,2 F,2 F,2 |]
V:5 clef=perc stafflines=1
% Staff-4
% bj jb
% By Unregistered User
% Copyright 0za9 1999 by NoteWorthy ArtWare, Inc.
% All Rights Reserved
% Generated by NoteWorthy Composer
B2 BB BB B3/2z/2| 
BB BB B2 BB| 
BB B2 BB BB| 
B2 BB BB B3/2z/2|
BB BB B2 BB| 
BB B2 BB BB| 
B3-B/2z/2 B2 B2-| 
B2 B2 B3-B/2z/2|
B2 B3-B/2z/2 B3/2z/2| 
B3-B/2z/2 B2 B2-| 
B2 B2 B3-B/2z/2| 
B2 B3-B/2z/2 B3/2z/2|
B2 BB BB B3/2z/2| 
BB BB B2 BB| 
BB B2 BB BB| 
B2 BB BB B3/2z/2|
BB BB B2 BB| 
BB B2 BB B2 |]





